X:59
T:The Sweetness of Mary
C:Joan McDonald Boes
N:from the playing of Pip Barnes
Q:1/4=100
I:abc2nwc
M:4/4
L:1/8
K:D
"^strathspey"A,D3/2E/2|:F2FE/2D/2 B,2B,D/2E/2|F/2A3/2G/2B3/2 A2AB/2c/2|
d3/2c/2B3/2A/2 A3/2G/2F3/2G/2|A/2d3/2 F/2D3/2 E2D3/2E/2|
F2FE/2D/2 B,2B,D/2E/2|F/2A3/2G/2B3/2 A2AB/2c/2|
d3/2c/2B3/2A/2 A3/2G/2F3/2G/2|[1A/2d3/2F/2E3/2 D3/2A,/2D3/2E/2:|
[2A/2d3/2F/2E3/2 D2
|:d3/2e/2|f3/2A/2d/2f3/2 e3/2A/2c/2e3/2|
d3/2c/2B/2d3/2 A4|B3/2A/2G3/2B/2 A3/2G/2F3/2G/2|
A/2d3/2 F/2D3/2 E2d3/2e/2|f3/2A/2d/2f3/2 e3/2A/2c/2e3/2|
d3/2c/2B/2d3/2 A4|B3/2A/2G3/2B/2 A/2d3/2F3/2G/2|
A/2d3/2 F/2E3/2 D2:|


